swiss/communes/0026.svg

<?xml version="1.0" encoding="UTF-8" standalone="no"?>
<!-- Created with Inkscape (http://www.inkscape.org/) -->
<svg
   xmlns:svg="http://www.w3.org/2000/svg"
   xmlns="http://www.w3.org/2000/svg"
   version="1.0"
   width="219.63768"
   height="257.27136"
   id="svg2780">
  <defs
     id="defs2782" />
  <g
     transform="translate(-12.708593,-808.9868)"
     id="layer1">
    <path
       d="M 13.708593,809.9868 L 17.665637,976.20999 C 20.49209,1094.9409 224.56276,1094.9409 227.38922,976.20999 L 231.34627,809.9868 L 13.708593,809.9868 z "
       style="fill:#ffffff;fill-opacity:1;fill-rule:evenodd;stroke:#000000;stroke-width:2;stroke-linecap:butt;stroke-miterlimit:4;stroke-dashoffset:0;stroke-opacity:1"
       id="path3282" />
    <g
       transform="translate(-1.30857,0)"
       style="stroke:#000000"
       id="g6065">
      <rect
         width="6.9772563"
         height="22.925272"
         rx="3.4886281"
         ry="3.4886279"
         x="-712.73474"
         y="646.47351"
         transform="matrix(-0.7821594,-0.6230784,-0.6230784,0.7821594,0,0)"
         style="color:#000000;fill:#151518;fill-opacity:1;fill-rule:evenodd;stroke:#000000;stroke-width:0.99999981pt;stroke-linecap:butt;stroke-linejoin:miter;marker:none;marker-start:none;marker-mid:none;marker-end:none;stroke-miterlimit:4;stroke-dasharray:none;stroke-dashoffset:0;stroke-opacity:1;visibility:visible;display:inline;overflow:visible;enable-background:accumulate"
         id="rect6028" />
      <rect
         width="141.66321"
         height="12.583979"
         rx="0"
         ry="0"
         x="-705.63287"
         y="651.64417"
         transform="matrix(-0.7821594,-0.6230784,-0.6230784,0.7821594,0,0)"
         style="color:#000000;fill:#151518;fill-opacity:1;fill-rule:evenodd;stroke:#000000;stroke-width:0.9999999pt;stroke-linecap:butt;stroke-linejoin:miter;marker:none;marker-start:none;marker-mid:none;marker-end:none;stroke-miterlimit:4;stroke-dasharray:none;stroke-dashoffset:0;stroke-opacity:1;visibility:visible;display:inline;overflow:visible;enable-background:accumulate"
         id="rect6030" />
      <path
         d="M 50.196562,873.12199 L 55.475519,866.49524 L 44.658309,857.87811 L 66.472832,830.49402 L 72.125068,834.99667 L 64.905315,844.05973 L 70.947356,848.8729 L 78.167108,839.80983 L 88.009787,847.65064 L 77.141343,861.29396 L 67.59102,853.68605 L 62.933117,859.53318 L 72.483439,867.14109 L 66.195264,875.03473 L 71.454981,879.22469 L 77.743156,871.33105 L 87.293479,878.93896 L 91.951383,873.09183 L 82.40106,865.48392 L 93.269504,851.8406 L 103.11218,859.68141 L 95.892429,868.74447 L 101.93447,873.55764 L 109.15422,864.49457 L 114.80646,868.99722 L 92.991935,896.38131 L 82.174725,887.76418 L 76.895768,894.39093 L 50.196562,873.12199 z "
         style="color:#000000;fill:#151518;fill-opacity:1;fill-rule:evenodd;stroke:#000000;stroke-width:0.9999999pt;stroke-linecap:butt;stroke-linejoin:miter;marker:none;marker-start:none;marker-mid:none;marker-end:none;stroke-miterlimit:4;stroke-dashoffset:0;stroke-opacity:1;visibility:visible;display:inline;overflow:visible;enable-background:accumulate"
         id="path6036" />
      <path
         d="M 151.71131,962.03431 C 137.961,979.29528 138.28487,1002.4521 152.43424,1013.7237 C 166.58361,1024.9953 189.22682,1020.1343 202.97713,1002.8733 C 216.72744,985.61238 216.40357,962.45554 202.2542,951.18397 C 188.10483,939.9124 165.46161,944.77335 151.71131,962.03431 z M 194.29458,995.95671 C 184.72587,1007.9685 169.3662,1011.6678 160.0096,1004.2142 C 152.01734,997.84749 148.46482,978.12667 165.46138,972.98781 C 166.67066,955.27261 186.68657,954.3267 194.67883,960.69344 C 204.03543,968.14703 203.86328,983.94497 194.29458,995.95671 z "
         style="color:#000000;fill:#151518;fill-opacity:1;fill-rule:evenodd;stroke:#000000;stroke-width:0.97532187pt;stroke-linecap:butt;stroke-linejoin:miter;marker:none;marker-start:none;marker-mid:none;marker-end:none;stroke-miterlimit:4;stroke-dashoffset:0;stroke-opacity:1;visibility:visible;display:inline;overflow:visible;enable-background:accumulate"
         id="path6038" />
      <rect
         width="6.9772563"
         height="25.167961"
         rx="3.2394402"
         ry="3.2394407"
         x="-719.71198"
         y="645.35217"
         transform="matrix(-0.7821594,-0.6230784,-0.6230784,0.7821594,0,0)"
         style="color:#000000;fill:#151518;fill-opacity:1;fill-rule:evenodd;stroke:#000000;stroke-width:0.99999981pt;stroke-linecap:butt;stroke-linejoin:miter;marker:none;marker-start:none;marker-mid:none;marker-end:none;stroke-miterlimit:4;stroke-dasharray:none;stroke-dashoffset:0;stroke-opacity:1;visibility:visible;display:inline;overflow:visible;enable-background:accumulate"
         id="rect6026" />
      <path
         d="M 7.5766997 151.29642 A 14.889096 25.72554 0 1 1  -22.201493,151.29642 A 14.889096 25.72554 0 1 1  7.5766997 151.29642 z"
         transform="matrix(-0.2738556,-0.2181569,-0.2240836,0.2812954,236.97925,960.39328)"
         style="color:#000000;fill:#151518;fill-opacity:1;fill-rule:evenodd;stroke:#000000;stroke-width:2.8180788pt;stroke-linecap:butt;stroke-linejoin:miter;marker:none;marker-start:none;marker-mid:none;marker-end:none;stroke-miterlimit:4;stroke-dasharray:none;stroke-dashoffset:0;stroke-opacity:1;visibility:visible;display:inline;overflow:visible;enable-background:accumulate"
         id="path6024" />
      <path
         d="M 7.5766997 151.29642 A 14.889096 25.72554 0 1 1  -22.201493,151.29642 A 14.889096 25.72554 0 1 1  7.5766997 151.29642 z"
         transform="matrix(0.2181569,-0.2738556,-0.2812954,-0.2240836,193.93919,1048.9499)"
         style="color:#000000;fill:#151518;fill-opacity:1;fill-rule:evenodd;stroke:#000000;stroke-width:2.8180788pt;stroke-linecap:butt;stroke-linejoin:miter;marker:none;marker-start:none;marker-mid:none;marker-end:none;stroke-miterlimit:4;stroke-dasharray:none;stroke-dashoffset:0;stroke-opacity:1;visibility:visible;display:inline;overflow:visible;enable-background:accumulate"
         id="path6034" />
      <path
         d="M 7.5766997 151.29642 A 14.889096 25.72554 0 1 1  -22.201493,151.29642 A 14.889096 25.72554 0 1 1  7.5766997 151.29642 z"
         transform="matrix(0.2181569,-0.2738556,-0.2812954,-0.2240836,249.05773,979.75878)"
         style="color:#000000;fill:#151518;fill-opacity:1;fill-rule:evenodd;stroke:#000000;stroke-width:2.8180788pt;stroke-linecap:butt;stroke-linejoin:miter;marker:none;marker-start:none;marker-mid:none;marker-end:none;stroke-miterlimit:4;stroke-dasharray:none;stroke-dashoffset:0;stroke-opacity:1;visibility:visible;display:inline;overflow:visible;enable-background:accumulate"
         id="path6032" />
    </g>
    <g
       transform="translate(-2.0561332,0)"
       style="fill:#151518;fill-opacity:1;stroke:#000000"
       id="g6053">
      <rect
         width="6.9772563"
         height="22.925272"
         rx="3.4886281"
         ry="3.4886279"
         x="-518.43103"
         y="801.25836"
         transform="matrix(0.7821594,-0.6230784,0.6230784,0.7821594,0,0)"
         style="color:#000000;fill:#151518;fill-opacity:1;fill-rule:evenodd;stroke:#000000;stroke-width:0.99999981pt;stroke-linecap:butt;stroke-linejoin:miter;marker:none;marker-start:none;marker-mid:none;marker-end:none;stroke-miterlimit:4;stroke-dasharray:none;stroke-dashoffset:0;stroke-opacity:1;visibility:visible;display:inline;overflow:visible;enable-background:accumulate"
         id="rect3716" />
      <path
         d="M 112.52774,137.05725 L 122.63021,145.09826 L 110.36839,154.86618 L 102.52759,145.0235 L 112.52774,137.05725 z "
         transform="translate(0,804.33069)"
         style="color:#000000;fill:#151518;fill-opacity:1;fill-rule:evenodd;stroke:#000000;stroke-width:0.9999999pt;stroke-linecap:butt;stroke-linejoin:miter;marker:none;marker-start:none;marker-mid:none;marker-end:none;stroke-miterlimit:4;stroke-dasharray:none;stroke-dashoffset:0;stroke-opacity:1;visibility:visible;display:inline;overflow:visible;enable-background:accumulate"
         id="path6156" />
      <path
         d="M 136.63283,133.94358 L 126.52795,125.9045 L 213.3308,56.756218 L 221.1716,66.598892 L 136.63283,133.94358 z "
         transform="translate(0,804.33069)"
         style="color:#000000;fill:#151518;fill-opacity:1;fill-rule:evenodd;stroke:#000000;stroke-width:0.9999999pt;stroke-linecap:butt;stroke-linejoin:miter;marker:none;marker-start:none;marker-mid:none;marker-end:none;stroke-miterlimit:4;stroke-dasharray:none;stroke-dashoffset:0;stroke-opacity:1;visibility:visible;display:inline;overflow:visible;enable-background:accumulate"
         id="path6152" />
      <path
         d="M 198.22301,873.12199 L 192.94405,866.49524 L 203.76126,857.87811 L 181.94674,830.49402 L 176.2945,834.99667 L 183.51425,844.05973 L 177.47221,848.8729 L 170.25246,839.80983 L 160.40978,847.65064 L 171.27823,861.29396 L 180.82855,853.68605 L 185.48645,859.53318 L 175.93613,867.14109 L 182.22431,875.03473 L 176.96459,879.22469 L 170.67641,871.33105 L 161.12609,878.93896 L 156.46819,873.09183 L 166.01851,865.48392 L 155.15007,851.8406 L 145.30739,859.68141 L 152.52714,868.74447 L 146.4851,873.55764 L 139.26535,864.49457 L 133.61311,868.99722 L 155.42763,896.38131 L 166.24484,887.76418 L 171.5238,894.39093 L 198.22301,873.12199 z "
         style="color:#000000;fill:#151518;fill-opacity:1;fill-rule:evenodd;stroke:#000000;stroke-width:0.9999999pt;stroke-linecap:butt;stroke-linejoin:miter;marker:none;marker-start:none;marker-mid:none;marker-end:none;stroke-miterlimit:4;stroke-dashoffset:0;stroke-opacity:1;visibility:visible;display:inline;overflow:visible;enable-background:accumulate"
         id="path3728" />
      <path
         d="M 96.708262,962.03431 C 110.45857,979.29528 110.1347,1002.4521 95.985331,1013.7237 C 81.835963,1024.9953 59.192748,1020.1343 45.442436,1002.8733 C 31.69213,985.61238 32.016004,962.45554 46.165371,951.18397 C 60.314737,939.9124 82.957956,944.77335 96.708262,962.03431 z M 54.124994,995.95671 C 63.693702,1007.9685 79.053368,1011.6678 88.409965,1004.2142 C 96.402231,997.84749 99.954746,978.12667 82.958194,972.98781 C 81.748906,955.27261 61.733003,954.3267 53.740737,960.69344 C 44.384139,968.14703 44.556286,983.94497 54.124994,995.95671 z "
         style="color:#000000;fill:#151518;fill-opacity:1;fill-rule:evenodd;stroke:#000000;stroke-width:0.97532187pt;stroke-linecap:butt;stroke-linejoin:miter;marker:none;marker-start:none;marker-mid:none;marker-end:none;stroke-miterlimit:4;stroke-dashoffset:0;stroke-opacity:1;visibility:visible;display:inline;overflow:visible;enable-background:accumulate"
         id="path2737" />
      <rect
         width="6.9772563"
         height="25.167961"
         rx="3.2394402"
         ry="3.2394407"
         x="-525.40826"
         y="800.13702"
         transform="matrix(0.7821594,-0.6230784,0.6230784,0.7821594,0,0)"
         style="color:#000000;fill:#151518;fill-opacity:1;fill-rule:evenodd;stroke:#000000;stroke-width:0.99999981pt;stroke-linecap:butt;stroke-linejoin:miter;marker:none;marker-start:none;marker-mid:none;marker-end:none;stroke-miterlimit:4;stroke-dasharray:none;stroke-dashoffset:0;stroke-opacity:1;visibility:visible;display:inline;overflow:visible;enable-background:accumulate"
         id="rect3714" />
      <path
         d="M 7.5766997 151.29642 A 14.889096 25.72554 0 1 1  -22.201493,151.29642 A 14.889096 25.72554 0 1 1  7.5766997 151.29642 z"
         transform="matrix(0.2738556,-0.2181569,0.2240836,0.2812954,11.440323,960.39328)"
         style="color:#000000;fill:#151518;fill-opacity:1;fill-rule:evenodd;stroke:#000000;stroke-width:2.8180788pt;stroke-linecap:butt;stroke-linejoin:miter;marker:none;marker-start:none;marker-mid:none;marker-end:none;stroke-miterlimit:4;stroke-dasharray:none;stroke-dashoffset:0;stroke-opacity:1;visibility:visible;display:inline;overflow:visible;enable-background:accumulate"
         id="path3708" />
      <path
         d="M 7.5766997 151.29642 A 14.889096 25.72554 0 1 1  -22.201493,151.29642 A 14.889096 25.72554 0 1 1  7.5766997 151.29642 z"
         transform="matrix(-0.2181569,-0.2738556,0.2812954,-0.2240836,-0.6381588,979.75878)"
         style="color:#000000;fill:#151518;fill-opacity:1;fill-rule:evenodd;stroke:#000000;stroke-width:2.8180788pt;stroke-linecap:butt;stroke-linejoin:miter;marker:none;marker-start:none;marker-mid:none;marker-end:none;stroke-miterlimit:4;stroke-dasharray:none;stroke-dashoffset:0;stroke-opacity:1;visibility:visible;display:inline;overflow:visible;enable-background:accumulate"
         id="path3720" />
      <path
         d="M 7.5766997 151.29642 A 14.889096 25.72554 0 1 1  -22.201493,151.29642 A 14.889096 25.72554 0 1 1  7.5766997 151.29642 z"
         transform="matrix(-0.2181569,-0.2738556,0.2812954,-0.2240836,54.480378,1048.9499)"
         style="color:#000000;fill:#151518;fill-opacity:1;fill-rule:evenodd;stroke:#000000;stroke-width:2.8180788pt;stroke-linecap:butt;stroke-linejoin:miter;marker:none;marker-start:none;marker-mid:none;marker-end:none;stroke-miterlimit:4;stroke-dasharray:none;stroke-dashoffset:0;stroke-opacity:1;visibility:visible;display:inline;overflow:visible;enable-background:accumulate"
         id="path3722" />
    </g>
  </g>
</svg>

<svg xmlns="http://www.w3.org/2000/svg" version="1.0" width="219.638" height="257.271"><path d="m13.709 809.987 3.957 166.223c2.826 118.73 206.897 118.73 209.723 0l3.957-166.223H13.71z" style="fill:#fff;fill-opacity:1;fill-rule:evenodd;stroke:#000;stroke-width:2;stroke-linecap:butt;stroke-miterlimit:4;stroke-dashoffset:0;stroke-opacity:1" transform="translate(-12.709 -808.987)"/><g transform="translate(-14.017 -808.987)" style="stroke:#000"><rect width="6.977" height="22.925" rx="3.489" ry="3.489" x="-712.735" y="646.474" transform="scale(-1 1) rotate(-38.541)" style="color:#000;fill:#151518;fill-opacity:1;fill-rule:evenodd;stroke:#000;stroke-width:.99999981pt;stroke-linecap:butt;stroke-linejoin:miter;marker:none;marker-start:none;marker-mid:none;marker-end:none;stroke-miterlimit:4;stroke-dasharray:none;stroke-dashoffset:0;stroke-opacity:1;visibility:visible;display:inline;overflow:visible;enable-background:accumulate"/><rect width="141.663" height="12.584" rx="0" ry="0" x="-705.633" y="651.644" transform="scale(-1 1) rotate(-38.541)" style="color:#000;fill:#151518;fill-opacity:1;fill-rule:evenodd;stroke:#000;stroke-width:.9999999pt;stroke-linecap:butt;stroke-linejoin:miter;marker:none;marker-start:none;marker-mid:none;marker-end:none;stroke-miterlimit:4;stroke-dasharray:none;stroke-dashoffset:0;stroke-opacity:1;visibility:visible;display:inline;overflow:visible;enable-background:accumulate"/><path d="m50.197 873.122 5.279-6.627-10.818-8.617 21.815-27.384 5.652 4.503-7.22 9.063 6.042 4.813 7.22-9.063 9.843 7.84-10.869 13.644-9.55-7.608-4.658 5.847 9.55 7.608-6.288 7.894 5.26 4.19 6.288-7.894 9.55 7.608 4.658-5.847-9.55-7.608L93.27 851.84l9.842 7.84-7.22 9.063 6.042 4.814 7.22-9.063 5.652 4.502-21.814 27.384-10.817-8.617-5.28 6.627-26.698-21.269z" style="color:#000;fill:#151518;fill-opacity:1;fill-rule:evenodd;stroke:#000;stroke-width:.9999999pt;stroke-linecap:butt;stroke-linejoin:miter;marker:none;marker-start:none;marker-mid:none;marker-end:none;stroke-miterlimit:4;stroke-dashoffset:0;stroke-opacity:1;visibility:visible;display:inline;overflow:visible;enable-background:accumulate"/><path d="M151.711 962.034c-13.75 17.261-13.426 40.418.723 51.69 14.15 11.271 36.793 6.41 50.543-10.85 13.75-17.262 13.427-40.418-.723-51.69-14.15-11.272-36.792-6.41-50.543 10.85zm42.584 33.923c-9.57 12.011-24.929 15.71-34.285 8.257-7.993-6.367-11.545-26.087 5.451-31.226 1.21-17.715 21.226-18.661 29.218-12.295 9.356 7.454 9.184 23.252-.384 35.264z" style="color:#000;fill:#151518;fill-opacity:1;fill-rule:evenodd;stroke:#000;stroke-width:.97532187pt;stroke-linecap:butt;stroke-linejoin:miter;marker:none;marker-start:none;marker-mid:none;marker-end:none;stroke-miterlimit:4;stroke-dashoffset:0;stroke-opacity:1;visibility:visible;display:inline;overflow:visible;enable-background:accumulate"/><rect width="6.977" height="25.168" rx="3.239" ry="3.239" x="-719.712" y="645.352" transform="scale(-1 1) rotate(-38.541)" style="color:#000;fill:#151518;fill-opacity:1;fill-rule:evenodd;stroke:#000;stroke-width:.99999981pt;stroke-linecap:butt;stroke-linejoin:miter;marker:none;marker-start:none;marker-mid:none;marker-end:none;stroke-miterlimit:4;stroke-dasharray:none;stroke-dashoffset:0;stroke-opacity:1;visibility:visible;display:inline;overflow:visible;enable-background:accumulate"/><path d="M7.577 151.296a14.89 25.726 0 1 1-29.778 0 14.89 25.726 0 1 1 29.778 0z" transform="matrix(-.27386 -.21816 -.22408 .2813 236.98 960.393)" style="color:#000;fill:#151518;fill-opacity:1;fill-rule:evenodd;stroke:#000;stroke-width:2.8180788pt;stroke-linecap:butt;stroke-linejoin:miter;marker:none;marker-start:none;marker-mid:none;marker-end:none;stroke-miterlimit:4;stroke-dasharray:none;stroke-dashoffset:0;stroke-opacity:1;visibility:visible;display:inline;overflow:visible;enable-background:accumulate"/><path d="M7.577 151.296a14.89 25.726 0 1 1-29.778 0 14.89 25.726 0 1 1 29.778 0z" transform="matrix(.21816 -.27386 -.2813 -.22408 193.94 1048.95)" style="color:#000;fill:#151518;fill-opacity:1;fill-rule:evenodd;stroke:#000;stroke-width:2.8180788pt;stroke-linecap:butt;stroke-linejoin:miter;marker:none;marker-start:none;marker-mid:none;marker-end:none;stroke-miterlimit:4;stroke-dasharray:none;stroke-dashoffset:0;stroke-opacity:1;visibility:visible;display:inline;overflow:visible;enable-background:accumulate"/><path d="M7.577 151.296a14.89 25.726 0 1 1-29.778 0 14.89 25.726 0 1 1 29.778 0z" transform="matrix(.21816 -.27386 -.2813 -.22408 249.058 979.759)" style="color:#000;fill:#151518;fill-opacity:1;fill-rule:evenodd;stroke:#000;stroke-width:2.8180788pt;stroke-linecap:butt;stroke-linejoin:miter;marker:none;marker-start:none;marker-mid:none;marker-end:none;stroke-miterlimit:4;stroke-dasharray:none;stroke-dashoffset:0;stroke-opacity:1;visibility:visible;display:inline;overflow:visible;enable-background:accumulate"/></g><g transform="translate(-14.765 -808.987)" style="fill:#151518;fill-opacity:1;stroke:#000"><rect width="6.977" height="22.925" rx="3.489" ry="3.489" x="-518.431" y="801.258" transform="rotate(-38.541)" style="color:#000;fill:#151518;fill-opacity:1;fill-rule:evenodd;stroke:#000;stroke-width:.99999981pt;stroke-linecap:butt;stroke-linejoin:miter;marker:none;marker-start:none;marker-mid:none;marker-end:none;stroke-miterlimit:4;stroke-dasharray:none;stroke-dashoffset:0;stroke-opacity:1;visibility:visible;display:inline;overflow:visible;enable-background:accumulate"/><path d="m112.528 137.057 10.102 8.041-12.262 9.768-7.84-9.843 10-7.966z" transform="translate(0 804.33)" style="color:#000;fill:#151518;fill-opacity:1;fill-rule:evenodd;stroke:#000;stroke-width:.9999999pt;stroke-linecap:butt;stroke-linejoin:miter;marker:none;marker-start:none;marker-mid:none;marker-end:none;stroke-miterlimit:4;stroke-dasharray:none;stroke-dashoffset:0;stroke-opacity:1;visibility:visible;display:inline;overflow:visible;enable-background:accumulate"/><path d="m136.633 133.944-10.105-8.04 86.803-69.148 7.84 9.843-84.538 67.345z" transform="translate(0 804.33)" style="color:#000;fill:#151518;fill-opacity:1;fill-rule:evenodd;stroke:#000;stroke-width:.9999999pt;stroke-linecap:butt;stroke-linejoin:miter;marker:none;marker-start:none;marker-mid:none;marker-end:none;stroke-miterlimit:4;stroke-dasharray:none;stroke-dashoffset:0;stroke-opacity:1;visibility:visible;display:inline;overflow:visible;enable-background:accumulate"/><path d="m198.223 873.122-5.279-6.627 10.817-8.617-21.814-27.384-5.653 4.503 7.22 9.063-6.042 4.813-7.22-9.063-9.842 7.84 10.868 13.644 9.55-7.608 4.658 5.847-9.55 7.608 6.288 7.894-5.26 4.19-6.288-7.894-9.55 7.608-4.658-5.847 9.55-7.608-10.868-13.643-9.843 7.84 7.22 9.063-6.042 4.814-7.22-9.063-5.652 4.502 21.815 27.384 10.817-8.617 5.279 6.627 26.699-21.269z" style="color:#000;fill:#151518;fill-opacity:1;fill-rule:evenodd;stroke:#000;stroke-width:.9999999pt;stroke-linecap:butt;stroke-linejoin:miter;marker:none;marker-start:none;marker-mid:none;marker-end:none;stroke-miterlimit:4;stroke-dashoffset:0;stroke-opacity:1;visibility:visible;display:inline;overflow:visible;enable-background:accumulate"/><path d="M96.708 962.034c13.75 17.261 13.427 40.418-.723 51.69-14.149 11.271-36.792 6.41-50.543-10.85-13.75-17.262-13.426-40.418.723-51.69 14.15-11.272 36.793-6.41 50.543 10.85zm-42.583 33.923c9.569 12.011 24.928 15.71 34.285 8.257 7.992-6.367 11.545-26.087-5.452-31.226-1.21-17.715-21.225-18.661-29.217-12.295-9.357 7.454-9.185 23.252.384 35.264z" style="color:#000;fill:#151518;fill-opacity:1;fill-rule:evenodd;stroke:#000;stroke-width:.97532187pt;stroke-linecap:butt;stroke-linejoin:miter;marker:none;marker-start:none;marker-mid:none;marker-end:none;stroke-miterlimit:4;stroke-dashoffset:0;stroke-opacity:1;visibility:visible;display:inline;overflow:visible;enable-background:accumulate"/><rect width="6.977" height="25.168" rx="3.239" ry="3.239" x="-525.408" y="800.137" transform="rotate(-38.541)" style="color:#000;fill:#151518;fill-opacity:1;fill-rule:evenodd;stroke:#000;stroke-width:.99999981pt;stroke-linecap:butt;stroke-linejoin:miter;marker:none;marker-start:none;marker-mid:none;marker-end:none;stroke-miterlimit:4;stroke-dasharray:none;stroke-dashoffset:0;stroke-opacity:1;visibility:visible;display:inline;overflow:visible;enable-background:accumulate"/><path d="M7.577 151.296a14.89 25.726 0 1 1-29.778 0 14.89 25.726 0 1 1 29.778 0z" transform="matrix(.27386 -.21816 .22408 .2813 11.44 960.393)" style="color:#000;fill:#151518;fill-opacity:1;fill-rule:evenodd;stroke:#000;stroke-width:2.8180788pt;stroke-linecap:butt;stroke-linejoin:miter;marker:none;marker-start:none;marker-mid:none;marker-end:none;stroke-miterlimit:4;stroke-dasharray:none;stroke-dashoffset:0;stroke-opacity:1;visibility:visible;display:inline;overflow:visible;enable-background:accumulate"/><path d="M7.577 151.296a14.89 25.726 0 1 1-29.778 0 14.89 25.726 0 1 1 29.778 0z" transform="matrix(-.21816 -.27386 .2813 -.22408 -.638 979.759)" style="color:#000;fill:#151518;fill-opacity:1;fill-rule:evenodd;stroke:#000;stroke-width:2.8180788pt;stroke-linecap:butt;stroke-linejoin:miter;marker:none;marker-start:none;marker-mid:none;marker-end:none;stroke-miterlimit:4;stroke-dasharray:none;stroke-dashoffset:0;stroke-opacity:1;visibility:visible;display:inline;overflow:visible;enable-background:accumulate"/><path d="M7.577 151.296a14.89 25.726 0 1 1-29.778 0 14.89 25.726 0 1 1 29.778 0z" transform="matrix(-.21816 -.27386 .2813 -.22408 54.48 1048.95)" style="color:#000;fill:#151518;fill-opacity:1;fill-rule:evenodd;stroke:#000;stroke-width:2.8180788pt;stroke-linecap:butt;stroke-linejoin:miter;marker:none;marker-start:none;marker-mid:none;marker-end:none;stroke-miterlimit:4;stroke-dasharray:none;stroke-dashoffset:0;stroke-opacity:1;visibility:visible;display:inline;overflow:visible;enable-background:accumulate"/></g></svg>
